src/assets/flags/gw.svg

<?xml version="1.0" encoding="UTF-8"?>
<svg xmlns="http://www.w3.org/2000/svg" xmlns:xlink="http://www.w3.org/1999/xlink" width="25px" height="19px" viewBox="0 0 25 19" version="1.1">
<g id="surface1">
<path style=" stroke:none;fill-rule:nonzero;fill:rgb(80.784315%,6.666667%,14.901961%);fill-opacity:1;" d="M 0 0 L 8.59375 0 L 8.59375 19 L 0 19 Z M 0 0 "/>
<path style=" stroke:none;fill-rule:nonzero;fill:rgb(98.823529%,81.960785%,8.627451%);fill-opacity:1;" d="M 8.59375 0 L 25 0 L 25 9.5 L 8.59375 9.5 Z M 8.59375 0 "/>
<path style=" stroke:none;fill-rule:nonzero;fill:rgb(0%,61.960787%,28.627452%);fill-opacity:1;" d="M 8.59375 9.5 L 25 9.5 L 25 19 L 8.59375 19 Z M 8.59375 9.5 "/>
<path style=" stroke:none;fill-rule:nonzero;fill:rgb(0%,0%,0.392157%);fill-opacity:1;" d="M 4.296875 6.332031 L 3.332031 9.34375 L 4.816406 9.835938 "/>
<path style=" stroke:none;fill-rule:nonzero;fill:rgb(0%,0%,0.392157%);fill-opacity:1;" d="M 4.296875 6.332031 L 5.261719 9.34375 L 3.777344 9.835938 "/>
<path style=" stroke:none;fill-rule:nonzero;fill:rgb(0%,0%,0.392157%);fill-opacity:1;" d="M 7.269531 8.519531 L 4.144531 8.519531 L 4.144531 10.105469 "/>
<path style=" stroke:none;fill-rule:nonzero;fill:rgb(0%,0%,0.392157%);fill-opacity:1;" d="M 7.269531 8.519531 L 4.742188 10.382812 L 3.824219 9.101562 "/>
<path style=" stroke:none;fill-rule:nonzero;fill:rgb(0%,0%,0.392157%);fill-opacity:1;" d="M 6.132812 12.0625 L 5.167969 9.050781 L 3.683594 9.539062 "/>
<path style=" stroke:none;fill-rule:nonzero;fill:rgb(0%,0%,0.392157%);fill-opacity:1;" d="M 6.132812 12.0625 L 3.605469 10.199219 L 4.523438 8.917969 "/>
<path style=" stroke:none;fill-rule:nonzero;fill:rgb(0%,0%,0.392157%);fill-opacity:1;" d="M 2.460938 12.0625 L 4.988281 10.199219 L 4.070312 8.917969 "/>
<path style=" stroke:none;fill-rule:nonzero;fill:rgb(0%,0%,0.392157%);fill-opacity:1;" d="M 2.460938 12.0625 L 3.425781 9.050781 L 4.910156 9.539062 "/>
<path style=" stroke:none;fill-rule:nonzero;fill:rgb(0%,0%,0.392157%);fill-opacity:1;" d="M 1.324219 8.519531 L 3.851562 10.382812 L 4.769531 9.101562 "/>
<path style=" stroke:none;fill-rule:nonzero;fill:rgb(0%,0%,0.392157%);fill-opacity:1;" d="M 1.324219 8.519531 L 4.449219 8.519531 L 4.449219 10.105469 "/>
</g>
</svg>

<svg xmlns="http://www.w3.org/2000/svg" width="25" height="19" viewBox="0 0 25 19"><path d="M0 0h8.594v19H0Zm0 0" style="stroke:none;fill-rule:nonzero;fill:#ce1126;fill-opacity:1"/><path d="M8.594 0H25v9.5H8.594Zm0 0" style="stroke:none;fill-rule:nonzero;fill:#fcd116;fill-opacity:1"/><path d="M8.594 9.5H25V19H8.594Zm0 0" style="stroke:none;fill-rule:nonzero;fill:#009e49;fill-opacity:1"/><path d="m4.297 6.332-.965 3.012 1.484.492" style="stroke:none;fill-rule:nonzero;fill:#000001;fill-opacity:1"/><path d="m4.297 6.332.965 3.012-1.485.492" style="stroke:none;fill-rule:nonzero;fill:#000001;fill-opacity:1"/><path d="M7.27 8.52H4.145v1.585" style="stroke:none;fill-rule:nonzero;fill:#000001;fill-opacity:1"/><path d="m7.27 8.52-2.528 1.863-.918-1.281" style="stroke:none;fill-rule:nonzero;fill:#000001;fill-opacity:1"/><path d="M6.133 12.063 5.168 9.05l-1.484.488" style="stroke:none;fill-rule:nonzero;fill:#000001;fill-opacity:1"/><path d="m6.133 12.063-2.528-1.864.918-1.281" style="stroke:none;fill-rule:nonzero;fill:#000001;fill-opacity:1"/><path d="m2.46 12.063 2.528-1.864-.918-1.281" style="stroke:none;fill-rule:nonzero;fill:#000001;fill-opacity:1"/><path d="m2.46 12.063.966-3.012 1.484.488" style="stroke:none;fill-rule:nonzero;fill:#000001;fill-opacity:1"/><path d="m1.324 8.52 2.528 1.863.918-1.281" style="stroke:none;fill-rule:nonzero;fill:#000001;fill-opacity:1"/><path d="M1.324 8.52H4.45v1.585" style="stroke:none;fill-rule:nonzero;fill:#000001;fill-opacity:1"/></svg>
